svg/editor/hashtag_fill.svg

<?xml version="1.0" encoding="UTF-8"?>
<svg width="24px" height="24px" viewBox="0 0 24 24" version="1.1" xmlns="http://www.w3.org/2000/svg" xmlns:xlink="http://www.w3.org/1999/xlink">
    <title>hashtag_fill</title>
    <g id="页面-1" stroke="none" stroke-width="1" fill="none" fill-rule="evenodd">
        <g id="Editor" transform="translate(-384.000000, -48.000000)">
            <g id="hashtag_fill" transform="translate(384.000000, 48.000000)">
                 <path d="M24,0 L24,24 L0,24 L0,0 L24,0 Z M12.5934901,23.257841 L12.5819402,23.2595131 L12.5108777,23.2950439 L12.4918791,23.2987469 L12.4918791,23.2987469 L12.4767152,23.2950439 L12.4056548,23.2595131 C12.3958229,23.2563662 12.3870493,23.2590235 12.3821421,23.2649074 L12.3780323,23.275831 L12.360941,23.7031097 L12.3658947,23.7234994 L12.3769048,23.7357139 L12.4804777,23.8096931 L12.4953491,23.8136134 L12.4953491,23.8136134 L12.5071152,23.8096931 L12.6106902,23.7357139 L12.6232938,23.7196733 L12.6232938,23.7196733 L12.6266527,23.7031097 L12.609561,23.275831 C12.6075724,23.2657013 12.6010112,23.2592993 12.5934901,23.257841 L12.5934901,23.257841 Z M12.8583906,23.1452862 L12.8445485,23.1473072 L12.6598443,23.2396597 L12.6498822,23.2499052 L12.6498822,23.2499052 L12.6471943,23.2611114 L12.6650943,23.6906389 L12.6699349,23.7034178 L12.6699349,23.7034178 L12.678386,23.7104931 L12.8793402,23.8032389 C12.8914285,23.8068999 12.9022333,23.8029875 12.9078286,23.7952264 L12.9118235,23.7811639 L12.8776777,23.1665331 C12.8752882,23.1545897 12.8674102,23.1470016 12.8583906,23.1452862 L12.8583906,23.1452862 Z M12.1430473,23.1473072 C12.1332178,23.1423925 12.1221763,23.1452606 12.1156365,23.1525954 L12.1099173,23.1665331 L12.0757714,23.7811639 C12.0751323,23.7926639 12.0828099,23.8018602 12.0926481,23.8045676 L12.108256,23.8032389 L12.3092106,23.7104931 L12.3186497,23.7024347 L12.3186497,23.7024347 L12.3225043,23.6906389 L12.340401,23.2611114 L12.337245,23.2485176 L12.337245,23.2485176 L12.3277531,23.2396597 L12.1430473,23.1473072 Z" id="MingCute" fill-rule="nonzero"></path>
                <path d="M9.68621,2.5115 C10.5082,2.61425 11.0913,3.36394 10.9886,4.18597 L10.6368,6.99994 L14.6135,6.99994 L15.0117,3.81386 C15.1145,2.99183 15.8642,2.40874 16.6862,2.5115 C17.5082,2.61425 18.0913,3.36394 17.9886,4.18597 L17.6368,6.99994 L20,6.99994 C20.8284,6.99994 21.5,7.67151 21.5,8.49994 C21.5,9.32837 20.8284,9.99994 20,9.99994 L17.2618,9.99994 L16.7618,13.9999 L19.5,13.9999 C20.3284,13.9999 21,14.6715 21,15.4999 C21,16.3284 20.3284,16.9999 19.5,16.9999 L16.3868,16.9999 L15.9886,20.186 C15.8858,21.008 15.1361,21.5911 14.3141,21.4883 C13.4921,21.3856 12.909,20.6359 13.0117,19.8139 L13.3635,16.9999 L9.38683,16.9999 L8.98857,20.186 C8.88582,21.008 8.13614,21.5911 7.31411,21.4883 C6.49208,21.3856 5.90899,20.6359 6.01174,19.8139 L6.36348,16.9999 L4.5,16.9999 C3.67157,16.9999 3,16.3284 3,15.4999 C3,14.6715 3.67157,13.9999 4.5,13.9999 L6.73848,13.9999 L7.23848,9.99994 L5,9.99994 C4.17157,9.99994 3.5,9.32837 3.5,8.49994 C3.5,7.67151 4.17157,6.99994 5,6.99994 L7.61348,6.99994 L8.01174,3.81386 C8.11449,2.99183 8.86418,2.40874 9.68621,2.5115 Z M13.7385,13.9999 L14.2385,9.99994 L10.2618,9.99994 L9.76183,13.9999 L13.7385,13.9999 Z" id="形状" fill="#09244B"></path>
            </g>
        </g>
    </g>
</svg>

<svg xmlns="http://www.w3.org/2000/svg" width="24" height="24"><g fill="none" fill-rule="evenodd"><path d="M24 0v24H0V0h24ZM12.593 23.258l-.011.002-.071.035-.02.004-.014-.004-.071-.035c-.01-.004-.019-.001-.024.005l-.004.01-.017.428.005.02.01.013.104.074.015.004.012-.004.104-.074.012-.016.004-.017-.017-.427c-.002-.01-.009-.017-.017-.018Zm.265-.113-.013.002-.185.093-.01.01-.003.011.018.43.005.012.008.007.201.093c.012.004.023 0 .029-.008l.004-.014-.034-.614c-.003-.012-.01-.02-.02-.022Zm-.715.002a.023.023 0 0 0-.027.006l-.006.014-.034.614c0 .012.007.02.017.024l.015-.002.201-.093.01-.008.004-.011.017-.43-.003-.012-.01-.01-.184-.092Z"/><path fill="#09244B" d="M9.686 2.512a1.5 1.5 0 0 1 1.303 1.674L10.637 7h3.976l.399-3.186a1.5 1.5 0 0 1 2.977.372L17.637 7H20a1.5 1.5 0 0 1 0 3h-2.738l-.5 4H19.5a1.5 1.5 0 0 1 0 3h-3.113l-.398 3.186a1.5 1.5 0 0 1-2.977-.372L13.363 17H9.388l-.398 3.186a1.5 1.5 0 1 1-2.977-.372L6.363 17H4.5a1.5 1.5 0 1 1 0-3h2.238l.5-4H5a1.5 1.5 0 1 1 0-3h2.613l.399-3.186A1.5 1.5 0 0 1 9.686 2.51ZM13.74 14l.5-4h-3.977l-.5 4h3.976Z"/></g></svg>
